!! 00000] TT[WS
!!!OTL: Xin shanxi
!!!ARE: Asia, China, Shanxi Zuoquan
!! Ethnic Group: Han
!! WII, 263 (2)
!!!SCT: J0793
!!!YEM: Copyright 1995, estate of Helmut Schaffrath.
**kern
*ICvox
*Ivox
*M2/4
*k[]
*C:
{8cc
8ee
8dd
8ee
=1
8cc
8ee
8dd
8ee
=2
8cc
8b
8a
8cc
=3
8a
8e
4g}
=4
{8g
8g
8g
8ee
=5
8dd
8ee
8cc
8b
=6
8a
8g
8g
8d
=7
2c}
==
!!!AGN: Xiaodiao. Xuanchuan, Xinminge
!!!ONB: ESAC (Essen Associative Code) Database: CHINA
!!!AMT: simple duple
!!!AIN: vox
!!!EED: Helmut Schaffrath
!!!EEV: 1.0
*-
